T: Paddy Hearny's
M: 2/4
L: 1/8
K: Dmaj
FA de | fA A2 | Bc/B/A/ GB | dA A/B/A/G/ |FA de | fA A2 | Bc/B/A/ GE | D2 D :|A>B AG | FA dc | B>c BA | GF E2 |A>B AG | FA dc | Bc/B/A/ GE | D2- D :|~ | dc BA | ~ or ~ | dc B/c/B/A/ | ~
